packages/foundations/assets/icons/functional/images/social/share.svg

<svg xmlns="http://www.w3.org/2000/svg" width="32" height="32" fill="none"><path fill="#1A1C1F" fill-rule="evenodd" d="M23.337 4.053c-1.535.278-2.804 1.43-3.202 2.907-.112.416-.161 1.257-.094 1.617l.052.283-4.513 2.257-4.514 2.257-.265-.24c-.554-.502-1.132-.826-1.797-1.008-.429-.118-1.493-.131-1.911-.024-2.522.646-3.797 3.32-2.688 5.642a4.14 4.14 0 0 0 1.851 1.851c.627.3.985.376 1.771.374.644-.001.73-.013 1.212-.178.576-.197 1.162-.553 1.528-.93l.235-.24 4.543 2.272 4.544 2.271-.05.271c-.065.35-.014 1.194.096 1.605.363 1.347 1.48 2.457 2.852 2.834.479.132 1.547.132 2.026 0 1.113-.306 2.1-1.119 2.582-2.13.247-.516.35-.924.388-1.533a3.97 3.97 0 0 0-2.424-3.886c-.584-.241-.894-.298-1.586-.295-.729.004-1.12.089-1.717.375-.352.168-1.062.68-1.234.89-.064.078-.526-.14-4.593-2.174l-4.523-2.261.045-.23c.056-.291.057-.963.002-1.248l-.042-.218 4.515-2.257 4.515-2.257.423.355c.813.684 1.581.964 2.636.964 1.006 0 1.746-.25 2.484-.843 1.164-.933 1.727-2.449 1.439-3.875-.313-1.55-1.387-2.694-2.936-3.126-.334-.094-1.3-.136-1.65-.072m1.516 2.153c.388.195.718.521.925.914.158.3.169.354.169.88 0 .524-.011.58-.168.881-.176.337-.576.752-.869.904a2.8 2.8 0 0 1-.542.166c-.866.181-1.736-.26-2.164-1.098-.137-.266-.151-.344-.151-.853s.014-.587.151-.853a2.1 2.1 0 0 1 1.16-1.036c.382-.138 1.118-.091 1.489.095m-16 8c.388.195.718.521.925.914.158.3.169.354.169.88 0 .524-.011.58-.168.881-.176.337-.576.752-.869.904a2.8 2.8 0 0 1-.542.166c-.866.181-1.736-.26-2.164-1.098-.137-.266-.151-.344-.151-.853s.014-.587.151-.853a2.1 2.1 0 0 1 1.16-1.036c.382-.138 1.118-.091 1.489.095m16 8c.388.195.718.521.925.914.158.3.169.354.169.88 0 .524-.011.58-.168.881-.176.337-.576.752-.869.904a2.8 2.8 0 0 1-.542.166c-.866.181-1.736-.26-2.164-1.098-.137-.266-.151-.344-.151-.853s.014-.587.151-.853a2.1 2.1 0 0 1 1.16-1.036c.382-.138 1.118-.091 1.489.095"/></svg>

<svg width="32" height="32" viewBox="0 0 32 32" fill="none" xmlns="http://www.w3.org/2000/svg"><path d="M23.337 4.053 C 21.802 4.331,20.533 5.483,20.135 6.960 C 20.023 7.376,19.974 8.217,20.041 8.577 L 20.093 8.860 15.580 11.117 L 11.066 13.374 10.801 13.134 C 10.247 12.632,9.669 12.308,9.004 12.126 C 8.575 12.008,7.511 11.995,7.093 12.102 C 4.571 12.748,3.296 15.422,4.405 17.744 C 4.770 18.509,5.491 19.230,6.256 19.595 C 6.883 19.895,7.241 19.971,8.027 19.969 C 8.671 19.968,8.757 19.956,9.239 19.791 C 9.815 19.594,10.401 19.238,10.767 18.861 L 11.002 18.621 15.545 20.893 L 20.089 23.164 20.039 23.435 C 19.974 23.785,20.025 24.629,20.135 25.040 C 20.498 26.387,21.615 27.497,22.987 27.874 C 23.466 28.006,24.534 28.006,25.013 27.874 C 26.126 27.568,27.113 26.755,27.595 25.744 C 27.842 25.228,27.945 24.820,27.983 24.211 C 28.086 22.545,27.097 20.959,25.559 20.325 C 24.975 20.084,24.665 20.027,23.973 20.030 C 23.244 20.034,22.853 20.119,22.256 20.405 C 21.904 20.573,21.194 21.085,21.022 21.295 C 20.958 21.373,20.496 21.155,16.429 19.121 L 11.906 16.860 11.951 16.630 C 12.007 16.339,12.008 15.667,11.953 15.382 L 11.911 15.164 16.426 12.907 L 20.941 10.650 21.364 11.005 C 22.177 11.689,22.945 11.969,24.000 11.969 C 25.006 11.969,25.746 11.719,26.484 11.126 C 27.648 10.193,28.211 8.677,27.923 7.251 C 27.610 5.701,26.536 4.557,24.987 4.125 C 24.653 4.031,23.687 3.989,23.337 4.053 M24.853 6.206 C 25.241 6.401,25.571 6.727,25.778 7.120 C 25.936 7.420,25.947 7.474,25.947 8.000 C 25.947 8.524,25.936 8.580,25.779 8.881 C 25.603 9.218,25.203 9.633,24.910 9.785 C 24.815 9.834,24.571 9.909,24.368 9.951 C 23.502 10.132,22.632 9.691,22.204 8.853 C 22.067 8.587,22.053 8.509,22.053 8.000 C 22.053 7.491,22.067 7.413,22.204 7.147 C 22.455 6.656,22.861 6.294,23.364 6.111 C 23.746 5.973,24.482 6.020,24.853 6.206 M8.853 14.206 C 9.241 14.401,9.571 14.727,9.778 15.120 C 9.936 15.420,9.947 15.474,9.947 16.000 C 9.947 16.524,9.936 16.580,9.779 16.881 C 9.603 17.218,9.203 17.633,8.910 17.785 C 8.815 17.834,8.571 17.909,8.368 17.951 C 7.502 18.132,6.632 17.691,6.204 16.853 C 6.067 16.587,6.053 16.509,6.053 16.000 C 6.053 15.491,6.067 15.413,6.204 15.147 C 6.455 14.656,6.861 14.294,7.364 14.111 C 7.746 13.973,8.482 14.020,8.853 14.206 M24.853 22.206 C 25.241 22.401,25.571 22.727,25.778 23.120 C 25.936 23.420,25.947 23.474,25.947 24.000 C 25.947 24.524,25.936 24.580,25.779 24.881 C 25.603 25.218,25.203 25.633,24.910 25.785 C 24.815 25.834,24.571 25.909,24.368 25.951 C 23.502 26.132,22.632 25.691,22.204 24.853 C 22.067 24.587,22.053 24.509,22.053 24.000 C 22.053 23.491,22.067 23.413,22.204 23.147 C 22.455 22.656,22.861 22.294,23.364 22.111 C 23.746 21.973,24.482 22.020,24.853 22.206 " fill="#1A1C1F" stroke="none" fill-rule="evenodd"></path></svg>
